svgs/thin/bandage.svg

<svg xmlns="http://www.w3.org/2000/svg" viewBox="0 0 640 512"><!--! Font Awesome Pro 6.5.2 by @fontawesome - https://fontawesome.com License - https://fontawesome.com/license (Commercial License) Copyright 2024 Fonticons, Inc. --><path d="M480 112V400h80c35.3 0 64-28.7 64-64V176c0-35.3-28.7-64-64-64H480zm-16 0H176V400H464V112zM160 400V112H80c-35.3 0-64 28.7-64 64V336c0 35.3 28.7 64 64 64h80zm0-304h16H464h16 80c44.2 0 80 35.8 80 80V336c0 44.2-35.8 80-80 80H480 464 176 160 80c-44.2 0-80-35.8-80-80V176c0-44.2 35.8-80 80-80h80zm112 96a16 16 0 1 1 0 32 16 16 0 1 1 0-32zm80 16a16 16 0 1 1 32 0 16 16 0 1 1 -32 0zm-80 80a16 16 0 1 1 0 32 16 16 0 1 1 0-32zm80 16a16 16 0 1 1 32 0 16 16 0 1 1 -32 0z"/></svg>

<svg xmlns="http://www.w3.org/2000/svg" viewBox="0 0 640 512"><!--! Font Awesome Pro 6.6.0 by @fontawesome - https://fontawesome.com License - https://fontawesome.com/license (Commercial License) Copyright 2024 Fonticons, Inc. --><path d="M480 112l0 288 80 0c35.3 0 64-28.7 64-64l0-160c0-35.3-28.7-64-64-64l-80 0zm-16 0l-288 0 0 288 288 0 0-288zM160 400l0-288-80 0c-35.3 0-64 28.7-64 64l0 160c0 35.3 28.7 64 64 64l80 0zm0-304l16 0 288 0 16 0 80 0c44.2 0 80 35.8 80 80l0 160c0 44.2-35.8 80-80 80l-80 0-16 0-288 0-16 0-80 0c-44.2 0-80-35.8-80-80L0 176c0-44.2 35.8-80 80-80l80 0zm112 96a16 16 0 1 1 0 32 16 16 0 1 1 0-32zm80 16a16 16 0 1 1 32 0 16 16 0 1 1 -32 0zm-80 80a16 16 0 1 1 0 32 16 16 0 1 1 0-32zm80 16a16 16 0 1 1 32 0 16 16 0 1 1 -32 0z"/></svg>
